Costumes/v-block.svg

<?xml version="1.0" encoding="UTF-8" standalone="no"?>
<svg
   version="1.1"
   width="68.802589"
   height="79.578331"
   id="svg5"
   sodipodi:docname="v-block.svg"
   xmlns:inkscape="http://www.inkscape.org/namespaces/inkscape"
   xmlns:sodipodi="http://sodipodi.sourceforge.net/DTD/sodipodi-0.dtd"
   xmlns="http://www.w3.org/2000/svg"
   xmlns:svg="http://www.w3.org/2000/svg">
  <defs
     id="defs9" />
  <sodipodi:namedview
     id="namedview7"
     pagecolor="#ffffff"
     bordercolor="#000000"
     borderopacity="0.25"
     inkscape:showpageshadow="2"
     inkscape:pageopacity="0.0"
     inkscape:pagecheckerboard="0"
     inkscape:deskcolor="#d1d1d1" />
  <!-- Exported by Scratch - http://scratch.mit.edu/ -->
  <g
     id="ID0.4204043815843761"
     transform="translate(-0.18642588,-0.40614872)">
    <path
       id="ID0.671943019144237"
       d="m 321,356 c 0.667,0 1.333,0 2,0 4.496,1.837 11.833,0.834 17,2 0,1 0,2 0,3 -6.075,26.925 -16.717,49.283 -26,73 -5.466,-0.287 -9.348,-1.221 -14,1 -1,0 -2,0 -3,0 -4.17,-9.438 -7.312,-18.686 -11,-28 -1.828,-4.62 -3.546,-9.648 -5.75,-14.4 -2.464,-5.252 -6.007,-10.157 -8.25,-15.6 -0.578,-1.404 -0.183,-3.066 0,-4.65 0.24,-1.005 1.07,-1.776 1.25,-3 0.2,-1.311 -0.321,-2.457 0,-4 0.279,-1.215 0.172,-2.718 1.75,-3.35 6.012,-2.35 12.054,-3.279 19,-4 5.718,8.282 5.188,22.812 13,29 0.506,-9.161 3.027,-16.306 3,-26 3.396,-0.271 8.107,0.774 10,-1 -0.075,-1.742 0.224,-3.11 1,-4 z m -10,51 c -9.077,-12.256 -11.901,-30.766 -19,-45 -4.738,-0.738 -6.875,1.125 -11,1 0,3.333 0,6.667 0,10 10.837,13.163 14.706,33.294 23,49 4.26,-0.074 6.994,-1.673 12,-1 6.047,-21.234 19.034,-39.079 18,-60 -4,0 -8,0 -12,0 -1.771,15.61 -7.658,32.808 -11,46 z"
       transform="matrix(1.0073206,0,0,1.0073206,-273.5,-358.2)" />
    <path
       id="ID0.36757876398041844"
       fill="#ff9400"
       d="m 322,361 c 4,0 8,0 12,0 1.034,20.921 -11.953,38.766 -18,60 -5.006,-0.673 -7.74,0.926 -12,1 -8.294,-15.706 -12.163,-35.837 -23,-49 0,-3.333 0,-6.667 0,-10 4.125,0.125 6.262,-1.738 11,-1 7.099,14.234 9.923,32.744 19,45 3.342,-13.192 9.229,-30.39 11,-46 z"
       transform="matrix(1.0073206,0,0,1.0073206,-273.5,-358.2)" />
  </g>
</svg>

<svg version="1.1" width="69" height="80" xmlns="http://www.w3.org/2000/svg" xmlns:xlink="http://www.w3.org/1999/xlink">
  <!-- Exported by Scratch - http://scratch.mit.edu/ -->
  <g id="ID0.4204043815843761">
    <path id="ID0.671943019144237" d="M 321 356 C 321.667 356 322.333 356 323 356 C 327.496 357.837 334.833 356.834 340 358 C 340 359 340 360 340 361 C 333.925 387.925 323.283 410.283 314 434 C 308.534 433.713 304.652 432.779 300 435 C 299 435 298 435 297 435 C 292.830 425.562 289.688 416.314 286 407 C 284.172 402.380 282.454 397.352 280.250 392.600 C 277.786 387.348 274.243 382.443 272 377 C 271.422 375.596 271.817 373.934 272 372.350 C 272.240 371.345 273.070 370.574 273.250 369.350 C 273.450 368.039 272.929 366.893 273.250 365.350 C 273.529 364.135 273.422 362.632 275 362 C 281.012 359.650 287.054 358.721 294 358 C 299.718 366.282 299.188 380.812 307 387 C 307.506 377.839 310.027 370.694 310 361 C 313.396 360.729 318.107 361.774 320 360 C 319.925 358.258 320.224 356.890 321 356 Z M 311 407 C 301.923 394.744 299.099 376.234 292 362 C 287.262 361.262 285.125 363.125 281 363 C 281 366.333 281 369.667 281 373 C 291.837 386.163 295.706 406.294 304 422 C 308.260 421.926 310.994 420.327 316 421 C 322.047 399.766 335.034 381.921 334 361 C 330 361 326 361 322 361 C 320.229 376.610 314.342 393.808 311 407 Z " transform="matrix(1.0073206424713135, 0, 0, 1.0073206424713135, -273.5, -358.2)"/>
    <path id="ID0.36757876398041844" fill="#FF9400" d="M 322 361 C 326 361 330 361 334 361 C 335.034 381.921 322.047 399.766 316 421 C 310.994 420.327 308.260 421.926 304 422 C 295.706 406.294 291.837 386.163 281 373 C 281 369.667 281 366.333 281 363 C 285.125 363.125 287.262 361.262 292 362 C 299.099 376.234 301.923 394.744 311 407 C 314.342 393.808 320.229 376.610 322 361 Z " transform="matrix(1.0073206424713135, 0, 0, 1.0073206424713135, -273.5, -358.2)"/>
  </g>
</svg>
